svg/Frame-1261156453.svg

<svg width="49" height="75" viewBox="0 0 49 75" fill="none" xmlns="http://www.w3.org/2000/svg"><rect width="49" height="75" fill="#DADADA"/><mask id="path-2-inside-1_2483_15959" fill="white"><path d="M944.199 92.2002L-495.801 92.2001L-495.801 -16.7999L944.199 -16.7998L944.199 92.2002Z"/></mask><path d="M944.199 92.2002L-495.801 92.2001L-495.801 -16.7999L944.199 -16.7998L944.199 92.2002Z" fill="white"/><path d="M9.69122 71.3282H8.40722L8.19122 70.5242L9.51122 70.5482C9.96722 70.5482 10.1952 70.2842 10.1952 69.7562V61.9322H5.53922V61.0922H11.0712V69.9842C11.0712 70.8722 10.6032 71.3282 9.69122 71.3282ZM1.32722 62.3882H2.20322V71.4122H1.32722V62.3882ZM4.01522 64.1162H8.33522V68.6282H4.01522V64.1162ZM7.45922 67.8002V64.9442H4.89122V67.8002H7.45922ZM3.11522 60.3002C3.66722 60.9602 4.17122 61.6802 4.60322 62.4722L3.83522 62.8682C3.37922 62.0282 2.86322 61.2962 2.31122 60.6482L3.11522 60.3002ZM14.5632 62.1962C14.2632 62.7602 13.9272 63.2762 13.5432 63.7442L12.8112 63.2762C13.5672 62.3642 14.1192 61.3682 14.4552 60.2762L15.2832 60.4562C15.1752 60.7802 15.0552 61.0922 14.9352 61.4042H18.1632V62.1962H16.4712C16.6992 62.5802 16.8912 62.9402 17.0352 63.2762L16.2552 63.5642C16.0632 63.0842 15.8352 62.6282 15.5952 62.1962H14.5632ZM19.5192 62.1962C19.3032 62.5682 19.0632 62.9162 18.8112 63.2522L18.0912 62.8082C18.7152 62.0522 19.1592 61.2122 19.4352 60.2882L20.2632 60.4682C20.1552 60.8042 20.0352 61.1162 19.9152 61.4042H23.5152V62.1962H21.5712C21.8592 62.6522 22.0992 63.0842 22.2792 63.4682L21.4992 63.7442C21.2592 63.2042 20.9832 62.6882 20.6712 62.1962H19.5192ZM21.7872 67.5962V71.3882H20.9592V70.8482H15.4392V71.3882H14.6112V67.5962H21.7872ZM15.4392 70.0562H20.9592V68.3882H15.4392V70.0562ZM15.4392 65.9402C14.7432 66.3122 13.9872 66.6602 13.1832 66.9842L12.7752 66.2282C14.8272 65.4602 16.5312 64.5002 17.8992 63.3602H18.4752C19.9872 64.5842 21.7272 65.5442 23.6952 66.2522L23.2752 66.9962C22.4592 66.6842 21.6912 66.3242 20.9832 65.9402V66.4802H15.4392V65.9402ZM20.5152 65.6762C19.6632 65.1842 18.8832 64.6322 18.1872 64.0322C17.5272 64.6202 16.7712 65.1722 15.9072 65.6762H20.5152ZM29.5512 61.1162V68.4242C29.8272 68.3402 30.0912 68.2562 30.3552 68.1722V68.9882C28.7952 69.4922 26.9832 69.9602 24.9192 70.3922L24.6792 69.5522C24.9672 69.4922 25.2552 69.4322 25.5432 69.3842V61.1162H29.5512ZM26.3952 69.2042C27.2112 69.0242 27.9792 68.8442 28.7112 68.6522V66.9962H26.3952V69.2042ZM26.3952 66.2162H28.7112V64.4042H26.3952V66.2162ZM26.3952 63.6122H28.7112V61.9082H26.3952V63.6122ZM31.7352 60.4562H32.5992V62.8562H35.2512C35.2512 66.6002 35.1912 68.9042 35.0712 69.7922C34.9512 70.7762 34.3512 71.2802 33.2712 71.2802C33.0792 71.2802 32.7432 71.2682 32.2632 71.2442L32.0592 70.4762C32.4792 70.5002 32.8392 70.5242 33.1512 70.5242C33.7872 70.5242 34.1592 70.1642 34.2552 69.4682C34.3272 68.8442 34.3752 66.9122 34.3992 63.6962H32.5992V63.8642C32.5632 67.3202 31.7112 69.8522 30.0432 71.4482L29.3952 70.8842C30.9312 69.4322 31.7112 67.0922 31.7352 63.8642V63.6962H30.2472V62.8562H31.7352V60.4562ZM46.2312 60.5042L46.6512 61.2362C45.5592 61.5242 44.2992 61.7522 42.8592 61.8962V63.9242H46.6872V64.7642H42.8592V66.7322H47.5872V67.5602H42.8592V70.2122C42.8592 70.9322 42.4752 71.3042 41.7312 71.3042H39.8712L39.6792 70.4642C40.2912 70.4882 40.8792 70.5122 41.4312 70.5122C41.7912 70.5122 41.9832 70.3322 41.9832 69.9962V67.5602H36.8232V66.7322H41.9832V64.7642H37.8192V63.9242H41.9832V61.9682C40.7112 62.0642 39.3312 62.1242 37.8432 62.1242L37.5792 61.3442C41.0592 61.3442 43.9392 61.0562 46.2312 60.5042Z" fill="black"/><rect x="0.0992187" y="0.100195" width="48.2" height="49.2" rx="10.1" fill="#F6F6F6"/><rect x="0.0992187" y="0.100195" width="48.2" height="49.2" rx="10.1" stroke="#D4D4D8" stroke-width="0.2"/><g filter="url(#filter0_iii_2483_15959)"><path d="M37.3344 12.3491H26.7965C25.9175 12.3491 25.207 13.0817 25.207 13.9881V21.8855C25.207 22.6288 25.8095 23.2313 26.5528 23.2313H26.8967C27.45 23.2313 27.8986 23.6798 27.8986 24.2332C27.8986 25.1067 28.9386 25.5618 29.5803 24.9691L30.9405 23.7124C31.2754 23.4031 31.7145 23.2313 32.1703 23.2313H37.3318C38.2082 23.2313 38.9213 22.4987 38.9213 21.5923V13.9881C38.9213 13.0817 38.2108 12.3491 37.3318 12.3491H37.3344ZM32.2003 20.0148H28.7698C28.3394 20.0148 27.9919 19.6565 27.9919 19.2126C27.9919 18.7688 28.3394 18.4105 28.7698 18.4105H32.2003C32.6307 18.4105 32.9782 18.7688 32.9782 19.2126C32.9782 19.6565 32.6307 20.0148 32.2003 20.0148ZM35.3637 17.0228H28.7698C28.3394 17.0228 27.9919 16.6646 27.9919 16.2207C27.9919 15.7769 28.3394 15.4186 28.7698 15.4186H35.3637C35.7942 15.4186 36.1416 15.7769 36.1416 16.2207C36.1416 16.6646 35.7942 17.0228 35.3637 17.0228Z" fill="#ECECEC"/></g><g filter="url(#filter1_dii_2483_15959)"><path d="M18.6842 27.6952C21.0514 27.6952 22.9573 25.7963 22.9573 23.4477C22.9573 21.0991 21.0514 19.2002 18.6842 19.2002C16.3169 19.2002 14.4111 21.0991 14.4111 23.4477C14.4111 25.7963 16.3269 27.6952 18.6842 27.6952Z" fill="#8F8F8F"/><path d="M24.7729 36.2002C25.5653 36.2002 26.1972 35.5706 26.1972 34.781C26.1972 34.1014 26.2374 33.4018 25.9565 32.7622C25.7459 32.2725 25.3847 31.8328 25.0236 31.463C24.2312 30.6335 23.2181 30.0338 22.1448 29.6341C21.0715 29.2343 19.8578 29.0244 18.6842 29.0244H18.7143C17.5407 29.0244 16.3269 29.2343 15.2536 29.6341C14.1803 30.0338 13.1672 30.6335 12.3748 31.463C12.0137 31.8428 11.6526 32.2825 11.4419 32.7622C11.1611 33.4018 11.2012 34.1114 11.2012 34.781C11.2012 35.5606 11.8432 36.2002 12.6256 36.2002H24.7729Z" fill="#8F8F8F"/></g><defs><filter id="filter0_iii_2483_15959" x="24.7383" y="11.8804" width="14.6523" height="13.8252" filterUnits="userSpaceOnUse" color-interpolation-filters="sRGB"><feFlood flood-opacity="0" result="BackgroundImageFix"/><feBlend mode="normal" in="SourceGraphic" in2="BackgroundImageFix" result="shape"/><feColorMatrix in="SourceAlpha" type="matrix" values="0 0 0 0 0 0 0 0 0 0 0 0 0 0 0 0 0 0 127 0" result="hardAlpha"/><feOffset dx="0.46875" dy="0.46875"/><feGaussianBlur stdDeviation="0.703125"/><feComposite in2="hardAlpha" operator="arithmetic" k2="-1" k3="1"/><feColorMatrix type="matrix" values="0 0 0 0 0.121569 0 0 0 0 0.121569 0 0 0 0 0.117647 0 0 0 0.05 0"/><feBlend mode="normal" in2="shape" result="effect1_innerShadow_2483_15959"/><feColorMatrix in="SourceAlpha" type="matrix" values="0 0 0 0 0 0 0 0 0 0 0 0 0 0 0 0 0 0 127 0" result="hardAlpha"/><feOffset dx="-0.46875" dy="-0.46875"/><feGaussianBlur stdDeviation="0.703125"/><feComposite in2="hardAlpha" operator="arithmetic" k2="-1" k3="1"/><feColorMatrix type="matrix" values="0 0 0 0 0.121569 0 0 0 0 0.121569 0 0 0 0 0.117647 0 0 0 0.05 0"/><feBlend mode="normal" in2="effect1_innerShadow_2483_15959" result="effect2_innerShadow_2483_15959"/><feColorMatrix in="SourceAlpha" type="matrix" values="0 0 0 0 0 0 0 0 0 0 0 0 0 0 0 0 0 0 127 0" result="hardAlpha"/><feOffset dx="0.46875" dy="0.46875"/><feGaussianBlur stdDeviation="0.9375"/><feComposite in2="hardAlpha" operator="arithmetic" k2="-1" k3="1"/><feColorMatrix type="matrix" values="0 0 0 0 0.121569 0 0 0 0 0.121569 0 0 0 0 0.117647 0 0 0 0.05 0"/><feBlend mode="normal" in2="effect2_innerShadow_2483_15959" result="effect3_innerShadow_2483_15959"/></filter><filter id="filter1_dii_2483_15959" x="10.7305" y="18.7314" width="17.4062" height="19.875" filterUnits="userSpaceOnUse" color-interpolation-filters="sRGB"><feFlood flood-opacity="0" result="BackgroundImageFix"/><feColorMatrix in="SourceAlpha" type="matrix" values="0 0 0 0 0 0 0 0 0 0 0 0 0 0 0 0 0 0 127 0" result="hardAlpha"/><feOffset dx="0.9375" dy="1.40625"/><feGaussianBlur stdDeviation="0.5"/><feComposite in2="hardAlpha" operator="out"/><feColorMatrix type="matrix" values="0 0 0 0 0.394602 0 0 0 0 0.394602 0 0 0 0 0.394602 0 0 0 0.08 0"/><feBlend mode="normal" in2="BackgroundImageFix" result="effect1_dropShadow_2483_15959"/><feBlend mode="normal" in="SourceGraphic" in2="effect1_dropShadow_2483_15959" result="shape"/><feColorMatrix in="SourceAlpha" type="matrix" values="0 0 0 0 0 0 0 0 0 0 0 0 0 0 0 0 0 0 127 0" result="hardAlpha"/><feOffset dx="0.5" dy="0.5"/><feGaussianBlur stdDeviation="0.5"/><feComposite in2="hardAlpha" operator="arithmetic" k2="-1" k3="1"/><feColorMatrix type="matrix" values="0 0 0 0 0.109684 0 0 0 0 0.0922738 0 0 0 0 0.0922738 0 0 0 0.1 0"/><feBlend mode="normal" in2="shape" result="effect2_innerShadow_2483_15959"/><feColorMatrix in="SourceAlpha" type="matrix" values="0 0 0 0 0 0 0 0 0 0 0 0 0 0 0 0 0 0 127 0" result="hardAlpha"/><feOffset dx="-0.46875" dy="-0.46875"/><feGaussianBlur stdDeviation="0.5"/><feComposite in2="hardAlpha" operator="arithmetic" k2="-1" k3="1"/><feColorMatrix type="matrix" values="0 0 0 0 0 0 0 0 0 0 0 0 0 0 0 0 0 0 0.05 0"/><feBlend mode="normal" in2="effect2_innerShadow_2483_15959" result="effect3_innerShadow_2483_15959"/></filter></defs></svg>

<svg fill="none" viewBox="0 0 49 75"><path fill="#DADADA" d="M0 0h49v75H0z"/><path fill="white" d="M944.199 92.2h-1440v-109h1440z"/><path fill="black" d="M9.691 71.328H8.407l-.216-.804 1.32.024q.684 0 .684-.792v-7.824H5.54v-.84h5.532v8.892c0 .888-.468 1.344-1.38 1.344m-8.364-8.94h.876v9.024h-.876zm2.688 1.728h4.32v4.512h-4.32zM7.46 67.8v-2.856H4.891V67.8zm-4.344-7.5a13.3 13.3 0 0 1 1.488 2.172l-.768.396a13 13 0 0 0-1.524-2.22zm11.448 1.896c-.3.564-.636 1.08-1.02 1.548l-.732-.468a8.7 8.7 0 0 0 1.644-3l.828.18c-.108.324-.228.636-.348.948h3.228v.792h-1.692c.228.384.42.744.564 1.08l-.78.288a12 12 0 0 0-.66-1.368zm4.956 0c-.216.372-.456.72-.708 1.056l-.72-.444a7.1 7.1 0 0 0 1.344-2.52l.828.18c-.108.336-.228.648-.348.936h3.6v.792h-1.944c.288.456.528.888.708 1.272l-.78.276q-.36-.81-.828-1.548zm2.268 5.4v3.792h-.828v-.54h-5.52v.54h-.828v-3.792zm-6.348 2.46h5.52v-1.668h-5.52zm0-4.116c-.696.372-1.452.72-2.256 1.044l-.408-.756c2.052-.768 3.756-1.728 5.124-2.868h.576c1.512 1.224 3.252 2.184 5.22 2.892l-.42.744a19 19 0 0 1-2.292-1.056v.54H15.44zm5.076-.264a15 15 0 0 1-2.328-1.644c-.66.588-1.416 1.14-2.28 1.644zm9.036-4.56v7.308c.276-.084.54-.168.804-.252v.816q-2.34.756-5.436 1.404l-.24-.84c.288-.06.576-.12.864-.168v-8.268zm-3.156 8.088a61 61 0 0 0 2.316-.552v-1.656h-2.316zm0-2.988h2.316v-1.812h-2.316zm0-2.604h2.316v-1.704h-2.316zm5.34-3.156h.864v2.4h2.652c0 3.744-.06 6.048-.18 6.936-.12.984-.72 1.488-1.8 1.488q-.288 0-1.008-.036l-.204-.768c.42.024.78.048 1.092.048.636 0 1.008-.36 1.104-1.056.072-.624.12-2.556.144-5.772h-1.8v.168c-.036 3.456-.888 5.988-2.556 7.584l-.648-.564q2.304-2.178 2.34-7.02v-.168h-1.488v-.84h1.488zm14.496.048.42.732a24.5 24.5 0 0 1-3.792.66v2.028h3.828v.84H42.86v1.968h4.728v.828H42.86v2.652c0 .72-.384 1.092-1.128 1.092h-1.86l-.192-.84c.612.024 1.2.048 1.752.048.36 0 .552-.18.552-.516V67.56h-5.16v-.828h5.16v-1.968H37.82v-.84h4.164v-1.956a55 55 0 0 1-4.14.156l-.264-.78c3.48 0 6.36-.288 8.652-.84"/><rect width="48.2" height="49.2" x=".099" y=".1" fill="#F6F6F6" rx="10.1"/><rect width="48.2" height="49.2" x=".099" y=".1" stroke="#D4D4D8" stroke-width=".2" rx="10.1"/><g filter="url(#a)"><path fill="#ECECEC" d="M37.334 12.35H26.796c-.878 0-1.589.732-1.589 1.638v7.898c0 .743.602 1.345 1.346 1.345h.344c.553 0 1.002.449 1.002 1.002 0 .874 1.04 1.329 1.681.736l1.36-1.257c.335-.309.774-.48 1.23-.48h5.162c.876 0 1.59-.733 1.59-1.64v-7.604c0-.906-.711-1.639-1.59-1.639zM32.2 20.014h-3.43a.79.79 0 0 1-.778-.802.79.79 0 0 1 .778-.803h3.43a.79.79 0 0 1 .778.803.79.79 0 0 1-.778.802m3.164-2.992H28.77a.79.79 0 0 1-.778-.802.79.79 0 0 1 .778-.802h6.594a.79.79 0 0 1 .778.802.79.79 0 0 1-.778.802"/></g><g fill="#8F8F8F" filter="url(#b)"><path d="M18.684 27.695c2.367 0 4.273-1.899 4.273-4.247 0-2.349-1.906-4.248-4.273-4.248s-4.273 1.9-4.273 4.248 1.916 4.247 4.273 4.247"/><path d="M24.773 36.2c.792 0 1.424-.63 1.424-1.419 0-.68.04-1.38-.24-2.019-.211-.49-.572-.93-.933-1.299-.793-.83-1.806-1.43-2.88-1.829-1.072-.4-2.286-.61-3.46-.61h.03c-1.173 0-2.387.21-3.46.61-1.074.4-2.087 1-2.88 1.829-.36.38-.721.82-.932 1.3-.28.639-.24 1.348-.24 2.018 0 .78.641 1.42 1.424 1.42z"/></g><defs><filter id="a" width="14.652" height="13.825" x="24.738" y="11.88" color-interpolation-filters="sRGB" filterUnits="userSpaceOnUse"><feFlood flood-opacity="0" result="BackgroundImageFix"/><feBlend in="SourceGraphic" in2="BackgroundImageFix" mode="normal" result="shape"/><feColorMatrix in="SourceAlpha" result="hardAlpha" type="matrix" values="0 0 0 0 0 0 0 0 0 0 0 0 0 0 0 0 0 0 127 0"/><feOffset dx=".469" dy=".469"/><feGaussianBlur stdDeviation=".703"/><feComposite in2="hardAlpha" k2="-1" k3="1" operator="arithmetic"/><feColorMatrix type="matrix" values="0 0 0 0 0.121569 0 0 0 0 0.121569 0 0 0 0 0.117647 0 0 0 0.05 0"/><feBlend in2="shape" mode="normal" result="effect1_innerShadow_2483_15959"/><feColorMatrix in="SourceAlpha" result="hardAlpha" type="matrix" values="0 0 0 0 0 0 0 0 0 0 0 0 0 0 0 0 0 0 127 0"/><feOffset dx="-.469" dy="-.469"/><feGaussianBlur stdDeviation=".703"/><feComposite in2="hardAlpha" k2="-1" k3="1" operator="arithmetic"/><feColorMatrix type="matrix" values="0 0 0 0 0.121569 0 0 0 0 0.121569 0 0 0 0 0.117647 0 0 0 0.05 0"/><feBlend in2="effect1_innerShadow_2483_15959" mode="normal" result="effect2_innerShadow_2483_15959"/><feColorMatrix in="SourceAlpha" result="hardAlpha" type="matrix" values="0 0 0 0 0 0 0 0 0 0 0 0 0 0 0 0 0 0 127 0"/><feOffset dx=".469" dy=".469"/><feGaussianBlur stdDeviation=".938"/><feComposite in2="hardAlpha" k2="-1" k3="1" operator="arithmetic"/><feColorMatrix type="matrix" values="0 0 0 0 0.121569 0 0 0 0 0.121569 0 0 0 0 0.117647 0 0 0 0.05 0"/><feBlend in2="effect2_innerShadow_2483_15959" mode="normal" result="effect3_innerShadow_2483_15959"/></filter><filter id="b" width="17.406" height="19.875" x="10.73" y="18.731" color-interpolation-filters="sRGB" filterUnits="userSpaceOnUse"><feFlood flood-opacity="0" result="BackgroundImageFix"/><feColorMatrix in="SourceAlpha" result="hardAlpha" type="matrix" values="0 0 0 0 0 0 0 0 0 0 0 0 0 0 0 0 0 0 127 0"/><feOffset dx=".938" dy="1.406"/><feGaussianBlur stdDeviation=".5"/><feComposite in2="hardAlpha" operator="out"/><feColorMatrix type="matrix" values="0 0 0 0 0.394602 0 0 0 0 0.394602 0 0 0 0 0.394602 0 0 0 0.08 0"/><feBlend in2="BackgroundImageFix" mode="normal" result="effect1_dropShadow_2483_15959"/><feBlend in="SourceGraphic" in2="effect1_dropShadow_2483_15959" mode="normal" result="shape"/><feColorMatrix in="SourceAlpha" result="hardAlpha" type="matrix" values="0 0 0 0 0 0 0 0 0 0 0 0 0 0 0 0 0 0 127 0"/><feOffset dx=".5" dy=".5"/><feGaussianBlur stdDeviation=".5"/><feComposite in2="hardAlpha" k2="-1" k3="1" operator="arithmetic"/><feColorMatrix type="matrix" values="0 0 0 0 0.109684 0 0 0 0 0.0922738 0 0 0 0 0.0922738 0 0 0 0.1 0"/><feBlend in2="shape" mode="normal" result="effect2_innerShadow_2483_15959"/><feColorMatrix in="SourceAlpha" result="hardAlpha" type="matrix" values="0 0 0 0 0 0 0 0 0 0 0 0 0 0 0 0 0 0 127 0"/><feOffset dx="-.469" dy="-.469"/><feGaussianBlur stdDeviation=".5"/><feComposite in2="hardAlpha" k2="-1" k3="1" operator="arithmetic"/><feColorMatrix type="matrix" values="0 0 0 0 0 0 0 0 0 0 0 0 0 0 0 0 0 0 0.05 0"/><feBlend in2="effect2_innerShadow_2483_15959" mode="normal" result="effect3_innerShadow_2483_15959"/></filter></defs></svg>
